Sources/FrostedUI/Resources/Icons.xcassets/sparkleRectangle16.imageset/sparkle-rectangle-16.svg

<svg width="16" height="16" viewBox="0 0 16 16" fill="none" xmlns="http://www.w3.org/2000/svg" data-fui-icon="true">
  <path
    d="M6.30273 1.94727C6.71695 1.94727 7.05273 2.28305 7.05273 2.69727C7.0526 3.11137 6.71687 3.44727 6.30273 3.44727H3.11035C2.35924 3.44727 1.75 4.05651 1.75 4.80762V12.8906C1.75031 13.6415 2.35943 14.25 3.11035 14.25H11.1934C11.9441 14.2498 12.5524 13.6414 12.5527 12.8906V9.69727C12.5527 9.28315 12.8887 8.94743 13.3027 8.94727C13.7169 8.94727 14.0527 9.28305 14.0527 9.69727V12.8906C14.0524 14.4698 12.7726 15.7498 11.1934 15.75H3.11035C1.53101 15.75 0.250309 14.4699 0.25 12.8906V4.80762C0.25 3.22808 1.53082 1.94727 3.11035 1.94727H6.30273ZM11.8184 0.25C12.2324 0.250198 12.5684 0.585909 12.5684 1C12.5684 1.50337 12.8564 2.11913 13.3691 2.63184C13.8816 3.14411 14.4969 3.43151 15 3.43164C15.414 3.43184 15.7499 3.76763 15.75 4.18164C15.75 4.59573 15.414 4.93144 15 4.93164C14.5517 4.93182 13.9429 5.26765 13.3906 5.86816C13.1297 6.15191 12.9144 6.46063 12.7686 6.74512C12.6162 7.04234 12.5685 7.25593 12.5684 7.36328C12.5684 7.77737 12.2324 8.11308 11.8184 8.11328C11.4042 8.11319 11.0684 7.77744 11.0684 7.36328C11.0682 7.29428 11.0227 7.10115 10.835 6.79199C10.6596 6.50331 10.4048 6.18608 10.1094 5.89062C9.81395 5.59523 9.49667 5.3404 9.20801 5.16504C8.89892 4.97734 8.70572 4.9318 8.63672 4.93164C8.22251 4.93164 7.88672 4.59585 7.88672 4.18164C7.88681 3.76751 8.22256 3.43164 8.63672 3.43164C8.74406 3.43153 8.95774 3.38372 9.25488 3.23145C9.53923 3.08565 9.84822 2.87106 10.1318 2.61035C10.7326 2.05792 11.0684 1.44842 11.0684 1C11.0684 0.585846 11.4042 0.250096 11.8184 0.25ZM11.7666 3.04297C11.5732 3.29112 11.3611 3.51739 11.1475 3.71387C10.9399 3.90467 10.7168 4.0784 10.4902 4.2334C10.7263 4.41548 10.9571 4.61724 11.1699 4.83008C11.3826 5.04274 11.5837 5.27391 11.7656 5.50977C11.9206 5.28318 12.0953 5.0611 12.2861 4.85352C12.4825 4.63997 12.7081 4.42673 12.9561 4.2334C12.7219 4.07077 12.5033 3.888 12.3076 3.69238C12.1117 3.49649 11.9294 3.27751 11.7666 3.04297Z"
    fill="currentColor"
  />
</svg>

<svg xmlns="http://www.w3.org/2000/svg" width="16" height="16" fill="none" data-fui-icon="true" viewBox="0 0 16 16"><path fill="currentColor" d="M6.303 1.947a.75.75 0 1 1 0 1.5H3.11c-.75 0-1.36.61-1.36 1.36v8.084c0 .75.61 1.359 1.36 1.359h8.083a1.36 1.36 0 0 0 1.36-1.36V9.698a.75.75 0 0 1 1.5 0v3.194a2.86 2.86 0 0 1-2.86 2.859H3.11a2.86 2.86 0 0 1-2.86-2.86V4.809a2.86 2.86 0 0 1 2.86-2.86zM11.818.25a.75.75 0 0 1 .75.75c0 .503.288 1.12.801 1.632s1.128.8 1.631.8a.75.75 0 0 1 0 1.5c-.448 0-1.057.336-1.61.936-.26.284-.476.593-.621.877-.153.297-.2.51-.2.618a.75.75 0 0 1-1.5 0c0-.069-.046-.262-.234-.571a5 5 0 0 0-.726-.901 5 5 0 0 0-.901-.726c-.31-.188-.502-.233-.571-.233a.75.75 0 0 1 0-1.5c.107 0 .32-.048.618-.2.284-.146.593-.36.877-.622.6-.552.936-1.162.936-1.61a.75.75 0 0 1 .75-.75m-.051 2.793a5.6 5.6 0 0 1-1.277 1.19c.236.182.467.384.68.597s.414.444.596.68c.155-.227.33-.449.52-.656.197-.214.422-.427.67-.62a5 5 0 0 1-.648-.542 5 5 0 0 1-.541-.649"/></svg>
